assets/img/social-icon.svg

<svg enable-background="new 0 0 30 30" height="30" viewBox="0 0 30 30" width="30" xmlns="http://www.w3.org/2000/svg"><path d="m25.085 3.863c0-.654-.562-1.181-1.252-1.181h-22.42c-.69 0-1.25.526-1.25 1.181v16.426c0 .654.561 1.184 1.25 1.184h1.251v-16.431h22.421zm.509 19.212h-16.039v-3.75l4.868-4.867c.139-.137.366-.137.505 0l2.745 2.745c.14.138.365.138.504 0l2.046-2.046c.139-.136.365-.139.504 0l4.868 4.866v3.052zm1.009-12.9c.558 0 1.008.45 1.008 1.007v12.902c0 .556-.45 1.008-1.008 1.008h-18.057c-.558 0-1.008-.452-1.008-1.008v-12.902c0-.557.45-1.007 1.008-1.007zm0-2.227h-18.057c-1.784 0-3.236 1.45-3.236 3.233v12.902c0 1.782 1.452 3.233 3.236 3.233h18.056c1.783 0 3.235-1.451 3.235-3.233v-12.901c.001-1.784-1.451-3.234-3.234-3.234z" fill="#c61f48"/></svg>

<?xml version="1.0" encoding="utf-8"?>
<!-- Generator: Adobe Illustrator 16.0.4, SVG Export Plug-In . SVG Version: 6.00 Build 0)  -->
<!DOCTYPE svg PUBLIC "-//W3C//DTD SVG 1.1//EN" "http://www.w3.org/Graphics/SVG/1.1/DTD/svg11.dtd">
<svg version="1.1" id="Layer_1" xmlns="http://www.w3.org/2000/svg" xmlns:xlink="http://www.w3.org/1999/xlink" x="0px" y="0px"
	 width="30px" height="30px" viewBox="0 0 30 30" enable-background="new 0 0 30 30" xml:space="preserve">
<path fill="#C61F48" d="M25.085,3.863c0-0.654-0.562-1.181-1.252-1.181H1.413c-0.69,0-1.25,0.526-1.25,1.181v16.426
	c0,0.654,0.561,1.184,1.25,1.184h1.251V5.042h22.421V3.863z M25.594,23.075H9.555v-3.75l4.868-4.867
	c0.139-0.137,0.366-0.137,0.505,0l2.745,2.745c0.14,0.138,0.365,0.138,0.504,0l2.046-2.046c0.139-0.136,0.365-0.139,0.504,0
	l4.868,4.866V23.075z M26.603,10.175c0.558,0,1.008,0.45,1.008,1.007v12.902c0,0.556-0.45,1.008-1.008,1.008H8.546
	c-0.558,0-1.008-0.452-1.008-1.008V11.182c0-0.557,0.45-1.007,1.008-1.007H26.603 M26.603,7.948H8.546
	c-1.784,0-3.236,1.45-3.236,3.233v12.902c0,1.782,1.452,3.233,3.236,3.233h18.056c1.783,0,3.235-1.451,3.235-3.233V11.182
	C29.838,9.398,28.386,7.948,26.603,7.948L26.603,7.948z"/>
</svg>
